uv/themes/uv-en-gb-theme/assets/download.svg

<?xml version="1.0" encoding="UTF-8" standalone="no"?>
<svg
   xmlns:dc="http://purl.org/dc/elements/1.1/"
   xmlns:cc="http://creativecommons.org/ns#"
   xmlns:rdf="http://www.w3.org/1999/02/22-rdf-syntax-ns#"
   xmlns:svg="http://www.w3.org/2000/svg"
   xmlns="http://www.w3.org/2000/svg"
   id="svg4050"
   version="1.1"
   viewBox="0 0 30 30"
   height="30"
   width="30">
  <metadata
     id="metadata4065">
    <rdf:RDF>
      <cc:Work
         rdf:about="">
        <dc:format>image/svg+xml</dc:format>
        <dc:type
           rdf:resource="http://purl.org/dc/dcmitype/StillImage" />
        <dc:title>button__download</dc:title>
      </cc:Work>
    </rdf:RDF>
  </metadata>
  <!-- Generator: Sketch 50.2 (55047) - http://www.bohemiancoding.com/sketch -->
  <title
     id="title4052">button__download</title>
  <desc
     id="desc4054">Created with Sketch.</desc>
  <defs
     id="defs4056" />
  <g
     transform="matrix(0.95652174,0,0,0.95652174,4.4785,4)"
     style="fill:#ffffff;fill-rule:evenodd;stroke:none;stroke-width:1"
     id="Fina-Designs-17th-June-2018">
    <g
       style="fill:#ffffff"
       transform="translate(-1038,-559)"
       id="mainPlayer-desktop-wide-view">
      <g
         style="fill:#ffffff"
         transform="translate(1038,559)"
         id="button/download">
        <g
           style="fill:#ffffff"
           id="icon/download">
          <path
             style="fill:#ffffff"
             id="Page-1"
             d="m 8,0 0,8 -5,0 8,9 8,-9 -5,0 0,-8 -6,0 z m -8,23 22,0 0,-2 -22,0 0,2 z m 0,-6 2,0 0,4 -2,0 0,-4 z m 20,0 2,0 0,4 -2,0 0,-4 z" />
        </g>
      </g>
    </g>
  </g>
</svg>

<?xml version="1.0" encoding="UTF-8" standalone="no"?>
<svg width="22px" height="23px" viewBox="0 0 22 23" version="1.1" xmlns="http://www.w3.org/2000/svg" xmlns:xlink="http://www.w3.org/1999/xlink">
    <!-- Generator: Sketch 50.2 (55047) - http://www.bohemiancoding.com/sketch -->
    <title>button__download</title>
    <desc>Created with Sketch.</desc>
    <defs></defs>
    <g id="Fina-Designs-17th-June-2018" stroke="none" stroke-width="1" fill="none" fill-rule="evenodd">
        <g id="mainPlayer-desktop-wide-view" transform="translate(-1038.000000, -559.000000)" fill="#FFFFFF">
            <g id="button/download" transform="translate(1038.000000, 559.000000)">
                <g id="icon/download">
                    <path d="M8,0 L8,8 L3,8 L11,17 L19,8 L14,8 L14,0 L8,0 Z M0,23 L22,23 L22,21 L0,21 L0,23 Z M0,17 L2,17 L2,21 L0,21 L0,17 Z M20,17 L22,17 L22,21 L20,21 L20,17 Z" id="Page-1"></path>
                </g>
            </g>
        </g>
    </g>
</svg>
